X: 23562
T: Light As A Feather
R: jig
M: 6/8
K: Edorian
B,EG BGE|A,DF AFD|B,EG BGB|AFD E2 E|
B,EG BGA|A,DF AFD|GFG BGB|1 AFD E2 E:|2 AFD E2 B||
|:ege Beg|bgb agf|gfe d2 d|AFD DFA|
ege Beg|bgb agf|gfe dcB|AGF E2 E:|

